X: 2
T:Vals frn Jeppo "ngen var grn" (efter Viktor Andersson)
T:"The meadow was green"
N:efter Viktor Andersson
A:Jeppo
O:Finland
M:3/4
L:1/8
K:Dm
A FG|:A2 a2 g=b|a3 g eg|f2 ed ^cd|e3 ^c eg|f2d2d2|d3 e gf|\
ec cd c=B|A3 A FG::\
A2 ff ff|((3fgf) ed ^cd|e2=c2c2|((3=BcB) AG FG|A2 ff ff|\
((3fgf) ed ^cd|e^c cd ec|[1d3zAA:|[2d3|]
